communes/4656.svg

<?xml version="1.0" encoding="UTF-8" standalone="no"?>
<!-- Created with Inkscape (http://www.inkscape.org/) -->

<svg
   xmlns:dc="http://purl.org/dc/elements/1.1/"
   xmlns:cc="http://creativecommons.org/ns#"
   xmlns:rdf="http://www.w3.org/1999/02/22-rdf-syntax-ns#"
   xmlns:svg="http://www.w3.org/2000/svg"
   xmlns="http://www.w3.org/2000/svg"
   xmlns:sodipodi="http://sodipodi.sourceforge.net/DTD/sodipodi-0.dtd"
   xmlns:inkscape="http://www.inkscape.org/namespaces/inkscape"
   version="1.0"
   width="208.86046"
   height="244.65999"
   id="svg2780"
   inkscape:version="0.92.3 (2405546, 2018-03-11)"
   sodipodi:docname="Güttingen-blazon.svg">
  <metadata
     id="metadata27">
    <rdf:RDF>
      <cc:Work
         rdf:about="">
        <dc:format>image/svg+xml</dc:format>
        <dc:type
           rdf:resource="http://purl.org/dc/dcmitype/StillImage" />
        <dc:title />
      </cc:Work>
    </rdf:RDF>
  </metadata>
  <sodipodi:namedview
     pagecolor="#ffffff"
     bordercolor="#666666"
     borderopacity="1"
     objecttolerance="10"
     gridtolerance="10"
     guidetolerance="10"
     inkscape:pageopacity="0"
     inkscape:pageshadow="2"
     inkscape:window-width="3236"
     inkscape:window-height="1417"
     id="namedview25"
     showgrid="false"
     inkscape:zoom="2.8284271"
     inkscape:cx="53.746019"
     inkscape:cy="170.86894"
     inkscape:window-x="-8"
     inkscape:window-y="-8"
     inkscape:window-maximized="1"
     inkscape:current-layer="svg2780"
     inkscape:measure-start="104.255,149.787"
     inkscape:measure-end="104.255,126.383"
     showguides="true"
     inkscape:object-paths="true"
     inkscape:snap-intersection-paths="true"
     inkscape:snap-nodes="true"
     inkscape:object-nodes="true"
     inkscape:snap-global="false"
     inkscape:snap-bbox="false"
     inkscape:snap-others="false"
     inkscape:snap-to-guides="true"
     inkscape:snap-smooth-nodes="true"
     inkscape:snap-midpoints="true" />
  <defs
     id="defs2782" />
  <g
     transform="matrix(0.76073998,-0.70710678,0.76073998,0.70710678,-8.61226,-128.45197)"
     id="g1331-4-5"
     style="fill:#feeb00;fill-opacity:1;stroke-width:0.96410507">
    <circle
       transform="rotate(-45)"
       r="29.576059"
       cy="105.07285"
       cx="-218.7859"
       id="path36980-7-7-2"
       style="fill:#feeb00;fill-opacity:1;stroke:#000000;stroke-width:0.96410507;stroke-miterlimit:4;stroke-dasharray:none;stroke-dashoffset:4.57999992;stroke-opacity:1" />
    <path
       inkscape:connector-curvature="0"
       id="path1043-8-98-7-7"
       d="m -50.83121,229.0027 -59.15212,2e-5"
       style="fill:#feeb00;fill-opacity:1;fill-rule:evenodd;stroke:#000000;stroke-width:0.96410507px;stroke-linecap:butt;stroke-linejoin:miter;stroke-opacity:1"
       sodipodi:nodetypes="cc" />
    <path
       inkscape:connector-curvature="0"
       id="path1043-5-7-8-2-1"
       d="M -52.709121,218.63181 H -108.10542"
       style="fill:#feeb00;fill-opacity:1;fill-rule:evenodd;stroke:#000000;stroke-width:0.96410507px;stroke-linecap:butt;stroke-linejoin:miter;stroke-opacity:1"
       sodipodi:nodetypes="cc" />
    <path
       inkscape:connector-curvature="0"
       id="path1043-92-9-11-1-7"
       d="m -59.665472,208.26092 -41.825468,1e-5"
       style="fill:#feeb00;fill-opacity:1;fill-rule:evenodd;stroke:#000000;stroke-width:0.96410507px;stroke-linecap:butt;stroke-linejoin:miter;stroke-opacity:1"
       sodipodi:nodetypes="cc" />
    <path
       inkscape:connector-curvature="0"
       id="path1043-52-8-7-5-8"
       d="M -52.709114,239.37362 H -108.10542"
       style="fill:#feeb00;fill-opacity:1;fill-rule:evenodd;stroke:#000000;stroke-width:0.96410507px;stroke-linecap:butt;stroke-linejoin:miter;stroke-opacity:1"
       sodipodi:nodetypes="cc" />
    <path
       inkscape:connector-curvature="0"
       id="path1043-94-7-6-6-4"
       d="M -59.323589,249.74451 H -101.49095"
       style="fill:#feeb00;fill-opacity:1;fill-rule:evenodd;stroke:#000000;stroke-width:0.96410507px;stroke-linecap:butt;stroke-linejoin:miter;stroke-opacity:1"
       sodipodi:nodetypes="cc" />
    <path
       sodipodi:nodetypes="cc"
       inkscape:connector-curvature="0"
       id="path1043-8-9-6-9-9"
       d="m -80.407276,258.57878 1.4e-5,-59.15212"
       style="fill:#feeb00;fill-opacity:1;fill-rule:evenodd;stroke:#000000;stroke-width:0.96410507px;stroke-linecap:butt;stroke-linejoin:miter;stroke-opacity:1" />
    <path
       sodipodi:nodetypes="cc"
       inkscape:connector-curvature="0"
       id="path1043-5-7-2-5-2-1"
       d="m -90.778171,256.70088 -7e-6,-55.39631"
       style="fill:#feeb00;fill-opacity:1;fill-rule:evenodd;stroke:#000000;stroke-width:0.96410507px;stroke-linecap:butt;stroke-linejoin:miter;stroke-opacity:1" />
    <path
       sodipodi:nodetypes="cc"
       inkscape:connector-curvature="0"
       id="path1043-92-9-1-8-9-4"
       d="m -101.14906,250.0864 -10e-6,-42.16734"
       style="fill:#feeb00;fill-opacity:1;fill-rule:evenodd;stroke:#000000;stroke-width:0.96410507px;stroke-linecap:butt;stroke-linejoin:miter;stroke-opacity:1" />
    <path
       sodipodi:nodetypes="cc"
       inkscape:connector-curvature="0"
       id="path1043-52-8-8-2-7-1"
       d="m -70.03636,256.70087 -7e-6,-55.3963"
       style="fill:#feeb00;fill-opacity:1;fill-rule:evenodd;stroke:#000000;stroke-width:0.96410507px;stroke-linecap:butt;stroke-linejoin:miter;stroke-opacity:1" />
    <path
       sodipodi:nodetypes="cc"
       inkscape:connector-curvature="0"
       id="path1043-94-7-1-7-1-5"
       d="m -59.665474,250.08639 2e-6,-42.16734"
       style="fill:#feeb00;fill-opacity:1;fill-rule:evenodd;stroke:#000000;stroke-width:0.96410507px;stroke-linecap:butt;stroke-linejoin:miter;stroke-opacity:1" />
  </g>
  <path
     inkscape:connector-curvature="0"
     style="fill:#ffffff;fill-opacity:1;fill-rule:evenodd;stroke:#000000;stroke-width:1.99999988;stroke-linecap:butt;stroke-miterlimit:4;stroke-dashoffset:0;stroke-opacity:1"
     id="path4212"
     d="m 1,1 3.761095,158.00304 c 2.686489,112.85918 196.651755,112.85918 199.338255,0 L 207.86045,1 Z" />
  <path
     id="path36962-6-3"
     style="fill:#316b31;fill-opacity:1;fill-rule:evenodd;stroke:#000000;stroke-width:0.99999994px;stroke-linecap:butt;stroke-linejoin:miter;stroke-opacity:1"
     d="M 80.229908,33.525713 C 69.988015,31.373855 57.391074,28.344189 51.369513,22.595511 c 4.02124,7.099531 3.228504,19.171516 2.265352,28.890369 l 27.873121,9.667138 z"
     inkscape:connector-curvature="0"
     sodipodi:nodetypes="ccccc" />
  <path
     id="path36962-6-4"
     style="fill:#316b31;fill-opacity:1;fill-rule:evenodd;stroke:#000000;stroke-width:0.99999994px;stroke-linecap:butt;stroke-linejoin:miter;stroke-opacity:1"
     d="m 154.91257,51.741809 c -0.96315,-9.718853 -1.75589,-21.79084 2.26535,-28.890373 -6.02156,5.748675 -18.6185,8.77834 -28.86039,10.930198 l -1.27808,27.627309 z"
     inkscape:connector-curvature="0"
     sodipodi:nodetypes="ccccc" />
  <path
     id="path36962-6"
     style="fill:#316b31;fill-opacity:1;fill-rule:evenodd;stroke:#000000;stroke-width:0.99999994px;stroke-linecap:butt;stroke-linejoin:miter;stroke-opacity:1"
     d="m 39.184967,93.97475 c -5.366685,8.38893 -12.359287,18.58848 -20.102058,22.13514 8.506821,-1.36093 20.613824,3.0703 30.260455,6.92503 l 18.504617,-21.65269 z"
     inkscape:connector-curvature="0"
     sodipodi:nodetypes="ccccc" />
  <path
     id="path36962-6-8"
     style="fill:#316b31;fill-opacity:1;fill-rule:evenodd;stroke:#000000;stroke-width:0.99999994px;stroke-linecap:butt;stroke-linejoin:miter;stroke-opacity:1"
     d="m 159.51711,123.03491 c 9.64663,-3.85472 21.75364,-8.28596 30.26046,-6.92503 -7.74277,-3.54666 -14.73537,-13.7462 -20.10205,-22.135135 l -28.66302,7.407475 z"
     inkscape:connector-curvature="0"
     sodipodi:nodetypes="ccccc" />
  <path
     id="path1012-5"
     style="fill:#316b31;fill-opacity:1;fill-rule:evenodd;stroke:#000000;stroke-width:0.99999994px;stroke-linecap:butt;stroke-linejoin:miter;stroke-opacity:1"
     d="m 98.438021,132.03499 c -0.536558,18.19243 -1.015063,36.41723 -2.42066,54.125 -30.585241,-29.15383 -60.625866,-7.60354 -60.22112,7.74719 0,7.61999 5.251766,13.77344 14.858558,13.77344 8.981455,0 14.913728,-6.18985 14.913728,-13.12828 0,-7.93956 -8.477021,-12.92875 -17.560918,-11.64235 14.282979,-10.993 44.782206,-3.41252 44.782206,23.625 l -0.268962,30.875 11.909387,-12.19544 11.90938,12.19544 -0.26896,-30.875 c 0,-27.03752 30.49923,-34.618 44.78221,-23.625 -9.0839,-1.2864 -17.56092,3.70279 -17.56092,11.64235 0,6.93843 5.93227,13.12828 14.91373,13.12828 9.60679,0 14.85856,-6.15345 14.85856,-13.77344 0.40474,-15.35073 -29.63588,-36.90102 -60.22112,-7.74719 -1.4056,-17.70777 -1.88411,-35.93257 -2.42066,-54.125 -4.00087,-0.3615 -7.98272,-0.16696 -11.984439,0 z"
     inkscape:connector-curvature="0"
     sodipodi:nodetypes="cccsscccccccsscccc" />
  <g
     id="g918"
     style="fill:#cc2918;fill-opacity:1;stroke-width:0.96410507"
     transform="matrix(1.0758488,0,0,1,-7.920912,0)">
    <circle
       r="31.156898"
       cy="39.952568"
       cx="104.43024"
       id="path36837"
       style="fill:#cc2918;fill-opacity:1;stroke:#000000;stroke-width:0.96410507;stroke-miterlimit:4;stroke-dasharray:none;stroke-dashoffset:4.57999992;stroke-opacity:1" />
    <circle
       r="31.156898"
       cy="74.765244"
       cx="152.34576"
       id="path36837-6"
       style="fill:#cc2918;fill-opacity:1;stroke:#000000;stroke-width:0.96410507;stroke-miterlimit:4;stroke-dasharray:none;stroke-dashoffset:4.57999992;stroke-opacity:1" />
    <circle
       r="31.156898"
       cy="131.09331"
       cx="134.04366"
       id="path36837-6-7"
       style="fill:#cc2918;fill-opacity:1;stroke:#000000;stroke-width:0.96410507;stroke-miterlimit:4;stroke-dasharray:none;stroke-dashoffset:4.57999992;stroke-opacity:1" />
    <circle
       r="31.156898"
       cy="131.09331"
       cx="74.816818"
       id="path36837-6-0"
       style="fill:#cc2918;fill-opacity:1;stroke:#000000;stroke-width:0.96410507;stroke-miterlimit:4;stroke-dasharray:none;stroke-dashoffset:4.57999992;stroke-opacity:1" />
    <circle
       r="31.156898"
       cy="74.765236"
       cx="56.514713"
       id="path36837-6-3"
       style="fill:#cc2918;fill-opacity:1;stroke:#000000;stroke-width:0.96410507;stroke-miterlimit:4;stroke-dasharray:none;stroke-dashoffset:4.57999992;stroke-opacity:1" />
  </g>
  <ellipse
     style="fill:#cc2918;fill-opacity:1;stroke:none;stroke-width:0.99999994;stroke-miterlimit:4;stroke-dasharray:none;stroke-dashoffset:4.57999992;stroke-opacity:1"
     id="path1381"
     cx="104.43023"
     cy="90.333916"
     rx="54.270458"
     ry="50.444317" />
  <ellipse
     style="fill:#feeb00;fill-opacity:1;stroke:#000000;stroke-width:0.99999994;stroke-miterlimit:4;stroke-dasharray:none;stroke-dashoffset:4.57999992;stroke-opacity:1"
     id="path36980-7-7"
     cx="-90.333931"
     cy="104.43024"
     transform="rotate(-90)"
     rx="29.576059"
     ry="31.819368" />
  <path
     sodipodi:nodetypes="cc"
     style="fill:#feeb00;fill-opacity:1;fill-rule:evenodd;stroke:#000000;stroke-width:0.99999988px;stroke-linecap:butt;stroke-linejoin:miter;stroke-opacity:1"
     d="M 126.85837,69.485556 82.002085,111.18228"
     id="path1043-8-98-7"
     inkscape:connector-curvature="0" />
  <path
     sodipodi:nodetypes="cc"
     style="fill:#feeb00;fill-opacity:1;fill-rule:evenodd;stroke:#000000;stroke-width:0.99999982px;stroke-linecap:butt;stroke-linejoin:miter;stroke-opacity:1"
     d="M 118.48327,63.639718 75.713232,103.39822"
     id="path1043-5-7-8-2"
     inkscape:connector-curvature="0" />
  <path
     sodipodi:nodetypes="cc"
     style="fill:#feeb00;fill-opacity:1;fill-rule:evenodd;stroke:#000000;stroke-width:0.99999988px;stroke-linecap:butt;stroke-linejoin:miter;stroke-opacity:1"
     d="M 106.80122,60.86652 72.489673,92.766189"
     id="path1043-92-9-11-1"
     inkscape:connector-curvature="0" />
  <path
     sodipodi:nodetypes="cc"
     style="fill:#feeb00;fill-opacity:1;fill-rule:evenodd;stroke:#000000;stroke-width:0.99999988px;stroke-linecap:butt;stroke-linejoin:miter;stroke-opacity:1"
     d="M 132.86254,77.534606 90.661894,116.76317"
     id="path1043-52-8-7-5"
     inkscape:connector-curvature="0" />
  <path
     sodipodi:nodetypes="cc"
     style="fill:#feeb00;fill-opacity:1;fill-rule:evenodd;stroke:#000000;stroke-width:0.99999988px;stroke-linecap:butt;stroke-linejoin:miter;stroke-opacity:1"
     d="M 136.18117,88.078259 102.00718,119.84941"
     id="path1043-94-7-6-6"
     inkscape:connector-curvature="0" />
  <path
     style="fill:#feeb00;fill-opacity:1;fill-rule:evenodd;stroke:#000000;stroke-width:0.99999988px;stroke-linecap:butt;stroke-linejoin:miter;stroke-opacity:1"
     d="M 126.76347,111.09397 82.097008,69.573894"
     id="path1043-8-9-6-9"
     inkscape:connector-curvature="0"
     sodipodi:nodetypes="cc" />
  <path
     style="fill:#feeb00;fill-opacity:1;fill-rule:evenodd;stroke:#000000;stroke-width:0.99999988px;stroke-linecap:butt;stroke-linejoin:miter;stroke-opacity:1"
     d="M 118.27221,116.83168 75.924323,77.466093"
     id="path1043-5-7-2-5-2"
     inkscape:connector-curvature="0"
     sodipodi:nodetypes="cc" />
  <path
     style="fill:#feeb00;fill-opacity:1;fill-rule:evenodd;stroke:#000000;stroke-width:0.99999988px;stroke-linecap:butt;stroke-linejoin:miter;stroke-opacity:1"
     d="M 106.79508,119.79521 72.737529,88.132501"
     id="path1043-92-9-1-8-9"
     inkscape:connector-curvature="0"
     sodipodi:nodetypes="cc" />
  <path
     style="fill:#feeb00;fill-opacity:1;fill-rule:evenodd;stroke:#000000;stroke-width:0.99999982px;stroke-linecap:butt;stroke-linejoin:miter;stroke-opacity:1"
     d="M 133.05233,103.3099 90.47209,63.728046"
     id="path1043-52-8-8-2-7"
     inkscape:connector-curvature="0"
     sodipodi:nodetypes="cc" />
  <path
     style="fill:#feeb00;fill-opacity:1;fill-rule:evenodd;stroke:#000000;stroke-width:0.99999988px;stroke-linecap:butt;stroke-linejoin:miter;stroke-opacity:1"
     d="M 136.27602,92.677892 101.91235,60.730153"
     id="path1043-94-7-1-7-1"
     inkscape:connector-curvature="0"
     sodipodi:nodetypes="cc" />
</svg>

<?xml version="1.0" encoding="UTF-8"?>
<svg version="1.0" viewBox="0 0 208.86 244.66" xmlns="http://www.w3.org/2000/svg" xmlns:cc="http://creativecommons.org/ns#" xmlns:dc="http://purl.org/dc/elements/1.1/" xmlns:rdf="http://www.w3.org/1999/02/22-rdf-syntax-ns#">
<metadata>
<rdf:RDF>
<cc:Work rdf:about="">
<dc:format>image/svg+xml</dc:format>
<dc:type rdf:resource="http://purl.org/dc/dcmitype/StillImage"/>
<dc:title/>
</cc:Work>
</rdf:RDF>
</metadata>
<g transform="matrix(.76074 -.70711 .76074 .70711 -8.6123 -128.45)" fill="#feeb00" stroke="#000">
<circle transform="rotate(-45)" cx="-218.79" cy="105.07" r="29.576" stroke-dashoffset="4.58" stroke-width=".96411"/>
<path d="m-50.831 229-59.152 2e-5" fill-rule="evenodd" stroke-width=".96411px"/>
<path d="m-52.709 218.63h-55.396" fill-rule="evenodd" stroke-width=".96411px"/>
<path d="m-59.665 208.26-41.825 1e-5" fill-rule="evenodd" stroke-width=".96411px"/>
<path d="m-52.709 239.37h-55.396" fill-rule="evenodd" stroke-width=".96411px"/>
<path d="m-59.324 249.74h-42.167" fill-rule="evenodd" stroke-width=".96411px"/>
<path d="m-80.407 258.58 1.4e-5 -59.152" fill-rule="evenodd" stroke-width=".96411px"/>
<path d="m-90.778 256.7-7e-6 -55.396" fill-rule="evenodd" stroke-width=".96411px"/>
<path d="m-101.15 250.09-1e-5 -42.167" fill-rule="evenodd" stroke-width=".96411px"/>
<path d="m-70.036 256.7-7e-6 -55.396" fill-rule="evenodd" stroke-width=".96411px"/>
<path d="m-59.665 250.09 2e-6 -42.167" fill-rule="evenodd" stroke-width=".96411px"/>
</g>
<path d="m1 1 3.7611 158c2.6865 112.86 196.65 112.86 199.34 0l3.7611-158z" fill="#fff" fill-rule="evenodd" stroke="#000" stroke-width="2"/>
<path d="m80.23 33.526c-10.242-2.1519-22.839-5.1815-28.86-10.93 4.0212 7.0995 3.2285 19.172 2.2654 28.89l27.873 9.6671z" fill="#316b31" fill-rule="evenodd" stroke="#000" stroke-width="1px"/>
<path d="m154.91 51.742c-0.96315-9.7189-1.7559-21.791 2.2654-28.89-6.0216 5.7487-18.618 8.7783-28.86 10.93l-1.2781 27.627z" fill="#316b31" fill-rule="evenodd" stroke="#000" stroke-width="1px"/>
<path d="m39.185 93.975c-5.3667 8.3889-12.359 18.588-20.102 22.135 8.5068-1.3609 20.614 3.0703 30.26 6.925l18.505-21.653z" fill="#316b31" fill-rule="evenodd" stroke="#000" stroke-width="1px"/>
<path d="m159.52 123.03c9.6466-3.8547 21.754-8.286 30.26-6.925-7.7428-3.5467-14.735-13.746-20.102-22.135l-28.663 7.4075z" fill="#316b31" fill-rule="evenodd" stroke="#000" stroke-width="1px"/>
<path d="m98.438 132.03c-0.53656 18.192-1.0151 36.417-2.4207 54.125-30.585-29.154-60.626-7.6035-60.221 7.7472 0 7.62 5.2518 13.773 14.859 13.773 8.9815 0 14.914-6.1898 14.914-13.128 0-7.9396-8.477-12.929-17.561-11.642 14.283-10.993 44.782-3.4125 44.782 23.625l-0.26896 30.875 11.909-12.195 11.909 12.195-0.26896-30.875c0-27.038 30.499-34.618 44.782-23.625-9.0839-1.2864-17.561 3.7028-17.561 11.642 0 6.9384 5.9323 13.128 14.914 13.128 9.6068 0 14.859-6.1534 14.859-13.773 0.40474-15.351-29.636-36.901-60.221-7.7472-1.4056-17.708-1.8841-35.933-2.4207-54.125-4.0009-0.3615-7.9827-0.16696-11.984 0z" fill="#316b31" fill-rule="evenodd" stroke="#000" stroke-width="1px"/>
<g transform="matrix(1.0758 0 0 1 -7.9209 0)" fill="#cc2918" stroke="#000" stroke-dashoffset="4.58" stroke-width=".96411">
<circle cx="104.43" cy="39.953" r="31.157"/>
<circle cx="152.35" cy="74.765" r="31.157"/>
<circle cx="134.04" cy="131.09" r="31.157"/>
<circle cx="74.817" cy="131.09" r="31.157"/>
<circle cx="56.515" cy="74.765" r="31.157"/>
</g>
<ellipse cx="104.43" cy="90.334" rx="54.27" ry="50.444" fill="#cc2918"/>
<ellipse transform="rotate(-90)" cx="-90.334" cy="104.43" rx="29.576" ry="31.819" fill="#feeb00" stroke="#000" stroke-dashoffset="4.58"/>
<path d="m126.86 69.486-44.856 41.697" fill="#feeb00" fill-rule="evenodd" stroke="#000" stroke-width="1px"/>
<path d="m118.48 63.64-42.77 39.759" fill="#feeb00" fill-rule="evenodd" stroke="#000" stroke-width="1px"/>
<path d="m106.8 60.867-34.312 31.9" fill="#feeb00" fill-rule="evenodd" stroke="#000" stroke-width="1px"/>
<path d="m132.86 77.535-42.201 39.229" fill="#feeb00" fill-rule="evenodd" stroke="#000" stroke-width="1px"/>
<path d="m136.18 88.078-34.174 31.771" fill="#feeb00" fill-rule="evenodd" stroke="#000" stroke-width="1px"/>
<path d="m126.76 111.09-44.666-41.52" fill="#feeb00" fill-rule="evenodd" stroke="#000" stroke-width="1px"/>
<path d="m118.27 116.83-42.348-39.366" fill="#feeb00" fill-rule="evenodd" stroke="#000" stroke-width="1px"/>
<path d="m106.8 119.8-34.058-31.663" fill="#feeb00" fill-rule="evenodd" stroke="#000" stroke-width="1px"/>
<path d="m133.05 103.31-42.58-39.582" fill="#feeb00" fill-rule="evenodd" stroke="#000" stroke-width="1px"/>
<path d="m136.28 92.678-34.364-31.948" fill="#feeb00" fill-rule="evenodd" stroke="#000" stroke-width="1px"/>
</svg>
